X: 131
T:Pencarrow
M:3/4
L:1/4
R:waltz?
Z:bil@blueskiesink.com
K:Bb
C/2 C/2|C G G|G A B|A F F|F2 G|E E C|D E F|G C C|
B,2 G/2A/2|B c B|A G A|B A G|F2 C|G G G|B A G|F D E|
D C B,|G G G |G A B|A G F|F2 G|E D C|D E F|G c =B|c3||
<end>
<start>
